;FLAVOR:Marlin
;TIME:3189
;Filament used: 3.32167m
;Layer height: 0.28
;MINX:80.581
;MINY:80.602
;MINZ:0.28
;MAXX:154.42
;MAXY:154.408
;MAXZ:66.08
;Generated with Cura_SteamEngine 5.4.0
M140 S50
M105
M190 S50
M104 S200
M105
M109 S200
M82 ;absolute extrusion mode
; Ender 3 Custom Start G-code
G92 E0 ; Reset Extruder
G28 ; Home all axes
G1 Z2.0 F3000 ; Move Z Axis up little to prevent scratching of Heat Bed
G1 X0.1 Y20 Z0.3 F5000.0 ; Move to start position
G1 X0.1 Y200.0 Z0.3 F1500.0 E15 ; Draw the first line
G1 X0.4 Y200.0 Z0.3 F5000.0 ; Move to side a little
G1 X0.4 Y20 Z0.3 F1500.0 E30 ; Draw the second line
G92 E0 ; Reset Extruder
G1 Z2.0 F3000 ; Move Z Axis up little to prevent scratching of Heat Bed
G1 X5 Y20 Z0.3 F5000.0 ; Move over to prevent blob squish
G92 E0
G92 E0
G1 F2700 E-5
;LAYER_COUNT:236
;LAYER:0
M107
G0 F6000 X90.889 Y91.994 Z0.28
;TYPE:SKIRT
G1 F2700 E0
G1 F1200 X93.084 Y89.89 E0.14158
G1 X93.731 Y89.286 E0.18279
G1 X94.418 Y88.701 E0.22481
G1 X94.911 Y88.338 E0.25332
G1 X95.631 Y87.837 E0.29416
G1 X98.234 Y86.077 E0.44047
G1 X98.855 Y85.672 E0.475
G1 X99.682 Y85.183 E0.51973
G1 X100.181 Y84.934 E0.5457
G1 X100.965 Y84.566 E0.58603
G1 X103.801 Y83.287 E0.73089
G1 X104.526 Y82.972 E0.7677
G1 X105.396 Y82.641 E0.81105
G1 X105.975 Y82.465 E0.83922
G1 X106.613 Y82.291 E0.87002
G1 X109.836 Y81.452 E1.0251
G1 X110.557 Y81.277 E1.05964
G1 X111.443 Y81.103 E1.10169
G1 X112.038 Y81.028 E1.12961
G1 X112.815 Y80.95 E1.16597
G1 X115.953 Y80.684 E1.31262
G1 X116.755 Y80.627 E1.35005
G1 X117.716 Y80.602 E1.39482
G1 X118.295 Y80.629 E1.42181
G1 X119.002 Y80.679 E1.45481
G1 X122.245 Y80.956 E1.60637
G1 X123.014 Y81.033 E1.64236
G1 X123.966 Y81.172 E1.68715
G1 X124.534 Y81.298 E1.71425
G1 X125.358 Y81.502 E1.75377
G1 X128.382 Y82.289 E1.89927
G1 X129.087 Y82.483 E1.93332
G1 X129.947 Y82.76 E1.97539
G1 X130.532 Y82.994 E2.00473
G1 X131.225 Y83.297 E2.03995
G1 X134.091 Y84.593 E2.18641
G1 X134.877 Y84.963 E2.22687
G1 X135.726 Y85.411 E2.27156
G1 X136.191 Y85.7 E2.29706
G1 X136.917 Y86.178 E2.33753
G1 X139.39 Y87.851 E2.47656
G1 X140.144 Y88.378 E2.5194
G1 X140.883 Y88.945 E2.56277
G1 X141.299 Y89.312 E2.5886
G1 X141.932 Y89.903 E2.62893
G1 X144.186 Y92.068 E2.77445
G1 X144.74 Y92.616 E2.81074
G1 X145.373 Y93.301 E2.85417
G1 X145.736 Y93.752 E2.88113
G1 X146.167 Y94.317 E2.91422
G1 X148.102 Y96.933 E3.06573
G1 X148.545 Y97.55 E3.1011
G1 X149.039 Y98.306 E3.14315
G1 X149.351 Y98.864 E3.17292
G1 X149.753 Y99.638 E3.21353
G1 X151.159 Y102.432 E3.35918
G1 X151.477 Y103.083 E3.39291
G1 X151.859 Y103.966 E3.43771
G1 X152.052 Y104.52 E3.46503
G1 X152.315 Y105.342 E3.50522
G1 X153.222 Y108.315 E3.64995
G1 X153.437 Y109.054 E3.68579
G1 X153.651 Y109.932 E3.72787
G1 X153.756 Y110.545 E3.75683
G1 X153.863 Y111.294 E3.79206
G1 X154.249 Y114.31 E3.93364
G1 X154.355 Y115.236 E3.97704
G1 X154.42 Y116.194 E4.02175
G1 X154.419 Y116.759 E4.04806
G1 X154.394 Y117.623 E4.08831
G1 X154.264 Y120.615 E4.22776
G1 X154.215 Y121.498 E4.26894
G1 X154.124 Y122.396 E4.31097
G1 X154.025 Y122.978 E4.33846
G1 X153.861 Y123.8 E4.37749
G1 X153.181 Y126.956 E4.52782
G1 X153.027 Y127.623 E4.55969
G1 X152.759 Y128.581 E4.60601
G1 X152.572 Y129.104 E4.63188
G1 X152.309 Y129.786 E4.66591
G1 X151.098 Y132.798 E4.81708
G1 X150.793 Y133.524 E4.85374
G1 X150.407 Y134.341 E4.89582
G1 X150.112 Y134.868 E4.92394
G1 X149.75 Y135.474 E4.95681
G1 X147.999 Y138.314 E5.11217
G1 X147.614 Y138.92 E5.1456
G1 X147.096 Y139.659 E5.18762
G1 X146.725 Y140.118 E5.2151
G1 X146.265 Y140.656 E5.24806
G1 X144.067 Y143.154 E5.403
G1 X143.575 Y143.696 E5.43708
G1 X142.92 Y144.356 E5.48038
G1 X142.479 Y144.742 E5.50767
G1 X141.833 Y145.277 E5.54673
G1 X139.494 Y147.166 E5.68672
G1 X138.799 Y147.713 E5.72791
G1 X138.017 Y148.271 E5.77264
G1 X137.543 Y148.561 E5.79852
G1 X136.805 Y148.988 E5.83822
G1 X134.143 Y150.473 E5.98015
G1 X133.325 Y150.913 E6.0234
G1 X132.486 Y151.315 E6.06672
G1 X131.966 Y151.521 E6.09277
G1 X131.188 Y151.807 E6.13137
G1 X128.334 Y152.814 E6.27229
G1 X127.504 Y153.093 E6.31306
G1 X126.61 Y153.349 E6.35636
G1 X126.063 Y153.466 E6.38241
G1 X125.182 Y153.63 E6.42414
G1 X122.071 Y154.162 E6.5711
G1 X121.39 Y154.269 E6.6032
G1 X120.464 Y154.373 E6.64659
G1 X119.878 Y154.397 E6.6739
G1 X119.151 Y154.408 E6.70776
G1 X115.835 Y154.408 E6.86216
G1 X115.083 Y154.395 E6.89719
G1 X114.125 Y154.337 E6.94188
G1 X113.589 Y154.266 E6.96705
G1 X112.956 Y154.167 E6.99689
G1 X109.578 Y153.587 E7.15648
G1 X108.876 Y153.453 E7.18976
G1 X107.944 Y153.233 E7.23435
G1 X107.442 Y153.078 E7.25881
G1 X106.636 Y152.805 E7.29844
G1 X103.787 Y151.798 E7.43914
G1 X102.934 Y151.48 E7.48153
G1 X102.055 Y151.106 E7.52601
G1 X101.58 Y150.866 E7.55079
G1 X100.951 Y150.526 E7.58409
G1 X98.194 Y148.985 E7.73116
G1 X97.423 Y148.539 E7.77263
G1 X96.614 Y148.021 E7.81736
G1 X96.164 Y147.684 E7.84354
G1 X95.501 Y147.163 E7.88281
G1 X93.174 Y145.284 E8.02208
G1 X92.488 Y144.713 E8.06364
G1 X91.777 Y144.066 E8.1084
G1 X91.375 Y143.643 E8.13557
G1 X90.816 Y143.021 E8.17451
G1 X88.735 Y140.658 E8.32113
G1 X88.262 Y140.103 E8.35509
G1 X87.672 Y139.346 E8.39978
G1 X87.356 Y138.877 E8.42611
G1 X86.939 Y138.221 E8.4623
G1 X85.252 Y135.48 E8.61217
G1 X84.865 Y134.829 E8.64744
G1 X84.417 Y133.993 E8.6916
G1 X84.177 Y133.457 E8.71895
G1 X83.85 Y132.672 E8.75855
G1 X82.67 Y129.73 E8.90615
G1 X82.409 Y129.051 E8.94002
G1 X82.115 Y128.167 E8.9834
G1 X81.97 Y127.607 E9.01034
G1 X81.784 Y126.794 E9.04917
G1 X81.115 Y123.677 E9.19762
G1 X80.967 Y122.923 E9.2334
G1 X80.823 Y121.975 E9.27804
G1 X80.783 Y121.466 E9.30182
G1 X80.735 Y120.641 E9.3403
G1 X80.601 Y117.458 E9.48864
G1 X80.581 Y116.739 E9.52214
G1 X80.597 Y115.78 E9.5668
G1 X80.643 Y115.241 E9.59199
G1 X80.731 Y114.463 E9.62845
G1 X81.126 Y111.384 E9.77299
G1 X81.251 Y110.505 E9.81433
G1 X81.428 Y109.562 E9.85901
G1 X81.573 Y109.009 E9.88563
G1 X81.768 Y108.342 E9.91799
G1 X82.742 Y105.16 E10.07294
G1 X82.96 Y104.482 E10.1061
G1 X83.273 Y103.635 E10.14815
G1 X83.547 Y103.028 E10.17916
G1 X83.867 Y102.375 E10.21302
G1 X85.347 Y99.444 E10.36591
G1 X85.673 Y98.82 E10.3987
G1 X86.156 Y97.991 E10.44337
G1 X86.473 Y97.525 E10.46962
G1 X87 Y96.794 E10.51158
G1 X88.851 Y94.294 E10.65642
G1 X89.311 Y93.693 E10.69166
G1 X89.891 Y93 E10.73374
G1 X90.309 Y92.565 E10.76184
G1 X90.889 Y91.994 E10.79973
G0 F6000 X91.166 Y92.283
G1 F1200 X93.357 Y90.182 E10.94108
G1 X93.99 Y89.591 E10.98141
G1 X94.677 Y89.006 E11.02342
G1 X95.139 Y88.666 E11.05013
G1 X95.855 Y88.168 E11.09075
G1 X98.453 Y86.412 E11.23676
G1 X99.059 Y86.016 E11.27047
G1 X99.861 Y85.541 E11.31387
G1 X100.351 Y85.296 E11.33938
G1 X101.129 Y84.931 E11.3794
G1 X103.96 Y83.654 E11.52401
G1 X104.669 Y83.346 E11.56001
G1 X105.513 Y83.024 E11.60207
G1 X106.08 Y82.851 E11.62967
G1 X106.714 Y82.678 E11.66027
G1 X109.93 Y81.841 E11.81501
G1 X110.634 Y81.67 E11.84875
G1 X111.52 Y81.496 E11.89079
G1 X112.078 Y81.426 E11.91698
G1 X112.849 Y81.349 E11.95306
G1 X115.981 Y81.083 E12.09942
G1 X116.766 Y81.027 E12.13607
G1 X117.698 Y81.002 E12.17948
G1 X118.267 Y81.028 E12.206
G1 X118.968 Y81.078 E12.23873
G1 X122.205 Y81.354 E12.39
G1 X122.957 Y81.429 E12.42519
G1 X123.88 Y81.563 E12.46862
G1 X124.438 Y81.686 E12.49523
G1 X125.257 Y81.889 E12.53452
G1 X128.276 Y82.675 E12.67978
G1 X128.964 Y82.864 E12.71301
G1 X129.824 Y83.141 E12.75508
G1 X130.372 Y83.361 E12.78257
G1 X131.06 Y83.661 E12.81752
G1 X133.921 Y84.955 E12.96374
G1 X134.691 Y85.317 E13.00335
G1 X135.515 Y85.751 E13.04672
G1 X135.971 Y86.034 E13.07171
G1 X136.693 Y86.509 E13.11195
G1 X139.161 Y88.179 E13.25071
G1 X139.901 Y88.696 E13.29274
G1 X140.618 Y89.245 E13.33479
G1 X141.026 Y89.605 E13.36013
G1 X141.655 Y90.191 E13.40016
G1 X143.905 Y92.352 E13.54543
G1 X144.446 Y92.887 E13.58085
G1 X145.079 Y93.572 E13.62428
G1 X145.418 Y93.995 E13.64953
G1 X145.845 Y94.555 E13.68232
G1 X147.777 Y97.166 E13.83356
G1 X148.21 Y97.769 E13.86813
G1 X148.704 Y98.525 E13.91018
G1 X148.996 Y99.048 E13.93807
G1 X149.396 Y99.818 E13.97848
G1 X150.8 Y102.607 E14.12387
G1 X151.11 Y103.242 E14.15677
G1 X151.481 Y104.098 E14.20022
G1 X151.671 Y104.642 E14.22705
G1 X151.932 Y105.459 E14.26698
G1 X152.838 Y108.427 E14.41148
G1 X153.048 Y109.149 E14.44649
G1 X153.262 Y110.027 E14.48857
G1 X153.36 Y110.601 E14.51569
G1 X153.466 Y111.345 E14.55068
G1 X153.852 Y114.356 E14.69204
G1 X153.956 Y115.263 E14.73455
G1 X154.02 Y116.193 E14.77795
G1 X154.019 Y116.747 E14.80375
G1 X153.994 Y117.606 E14.84376
G1 X153.865 Y120.593 E14.98298
G1 X153.817 Y121.458 E15.02332
G1 X153.726 Y122.356 E15.06535
G1 X153.633 Y122.9 E15.09105
G1 X153.47 Y123.716 E15.1298
G1 X152.791 Y126.866 E15.27984
G1 X152.637 Y127.533 E15.31172
G1 X152.382 Y128.447 E15.3559
G1 X152.199 Y128.96 E15.38126
G1 X151.938 Y129.637 E15.41505
G1 X150.729 Y132.643 E15.56592
G1 X150.431 Y133.353 E15.60177
G1 X150.045 Y134.17 E15.64385
G1 X149.769 Y134.663 E15.67016
G1 X149.41 Y135.264 E15.70275
G1 X147.662 Y138.099 E15.85784
G1 X147.286 Y138.69 E15.89046
G1 X146.768 Y139.429 E15.93248
G1 X146.421 Y139.858 E15.95817
G1 X145.965 Y140.392 E15.99087
G1 X143.771 Y142.885 E16.14551
G1 X143.291 Y143.414 E16.17877
G1 X142.636 Y144.074 E16.22207
G1 X142.224 Y144.434 E16.24754
G1 X141.582 Y144.966 E16.28637
G1 X139.247 Y146.852 E16.42613
G1 X138.566 Y147.388 E16.46649
G1 X137.808 Y147.93 E16.50988
G1 X137.343 Y148.215 E16.53527
G1 X136.61 Y148.639 E16.5747
G1 X133.954 Y150.121 E16.71633
G1 X133.152 Y150.552 E16.75872
G1 X132.313 Y150.954 E16.80204
G1 X131.828 Y151.146 E16.82633
G1 X131.055 Y151.43 E16.86468
G1 X128.207 Y152.435 E17.00531
G1 X127.394 Y152.708 E17.04524
G1 X126.5 Y152.964 E17.08854
G1 X125.99 Y153.073 E17.11283
G1 X125.115 Y153.236 E17.15427
G1 X122.009 Y153.767 E17.301
G1 X121.345 Y153.871 E17.33229
G1 X120.419 Y153.975 E17.37568
G1 X119.872 Y153.997 E17.40117
G1 X119.145 Y154.008 E17.43503
G1 X115.842 Y154.008 E17.58883
G1 X115.107 Y153.996 E17.62306
G1 X114.177 Y153.94 E17.66644
G1 X113.651 Y153.871 E17.69115
G1 X113.024 Y153.773 E17.7207
G1 X109.653 Y153.194 E17.87996
G1 X108.968 Y153.064 E17.91243
G1 X108.062 Y152.851 E17.95577
G1 X107.57 Y152.699 E17.97974
G1 X106.769 Y152.428 E18.01912
G1 X103.926 Y151.423 E18.15953
G1 X103.09 Y151.112 E18.20106
G1 X102.235 Y150.749 E18.24432
G1 X101.77 Y150.514 E18.26858
G1 X101.146 Y150.177 E18.3016
G1 X98.394 Y148.639 E18.4484
G1 X97.638 Y148.202 E18.48906
G1 X96.853 Y147.7 E18.53245
G1 X96.411 Y147.37 E18.55813
G1 X95.752 Y146.852 E18.59716
G1 X93.43 Y144.976 E18.73616
G1 X92.757 Y144.417 E18.7769
G1 X92.067 Y143.79 E18.82031
G1 X91.672 Y143.375 E18.84699
G1 X91.116 Y142.757 E18.8857
G1 X89.039 Y140.398 E19.03205
G1 X88.577 Y139.857 E19.06518
G1 X88.004 Y139.123 E19.10854
G1 X87.694 Y138.662 E19.13441
G1 X87.28 Y138.011 E19.17033
G1 X85.596 Y135.275 E19.31993
G1 X85.218 Y134.64 E19.35434
G1 X84.77 Y133.804 E19.3985
G1 X84.546 Y133.303 E19.42406
G1 X84.221 Y132.523 E19.46341
G1 X83.043 Y129.587 E19.61071
G1 X82.789 Y128.925 E19.64373
G1 X82.495 Y128.041 E19.68711
G1 X82.36 Y127.518 E19.71226
G1 X82.175 Y126.71 E19.75086
G1 X81.507 Y123.6 E19.89897
G1 X81.362 Y122.863 E19.93395
G1 X81.222 Y121.943 E19.97728
G1 X81.182 Y121.443 E20.00064
G1 X81.135 Y120.624 E20.03884
G1 X81.001 Y117.447 E20.1869
G1 X80.981 Y116.745 E20.2196
G1 X80.996 Y115.814 E20.26296
G1 X81.042 Y115.275 E20.28815
G1 X81.128 Y114.514 E20.32381
G1 X81.522 Y111.44 E20.46812
G1 X81.644 Y110.578 E20.50866
G1 X81.815 Y109.663 E20.552
G1 X81.957 Y109.121 E20.57809
G1 X82.15 Y108.459 E20.6102
G1 X83.123 Y105.282 E20.76492
G1 X83.335 Y104.621 E20.79724
G1 X83.648 Y103.774 E20.83929
G1 X83.906 Y103.204 E20.86842
G1 X84.224 Y102.555 E20.90208
G1 X85.701 Y99.629 E21.0547
G1 X86.019 Y99.021 E21.08665
G1 X86.487 Y98.216 E21.13
G1 X86.797 Y97.759 E21.15572
G1 X87.321 Y97.032 E21.19745
G1 X89.169 Y94.537 E21.34202
G1 X89.618 Y93.95 E21.37643
G1 X90.198 Y93.257 E21.41851
G1 X90.59 Y92.85 E21.44483
G1 X91.166 Y92.283 E21.48246
G0 F6000 X91.443 Y92.572
G1 F1200 X93.63 Y90.474 E21.62358
G1 X94.249 Y89.896 E21.66301
G1 X94.936 Y89.311 E21.70503
G1 X95.367 Y88.994 E21.72994
G1 X96.079 Y88.499 E21.77032
G1 X98.672 Y86.747 E21.91604
G1 X99.263 Y86.36 E21.94894
G1 X100.04 Y85.899 E21.991
G1 X100.521 Y85.658 E22.01606
G1 X101.294 Y85.296 E22.0558
G1 X104.119 Y84.021 E22.20012
G1 X104.812 Y83.72 E22.2353
G1 X105.656 Y83.398 E22.27737
G1 X106.186 Y83.237 E22.30316
G1 X106.815 Y83.065 E22.33352
G1 X110.025 Y82.23 E22.48797
G1 X110.711 Y82.063 E22.52084
G1 X111.597 Y81.889 E22.56289
G1 X112.117 Y81.824 E22.58729
G1 X112.883 Y81.748 E22.62313
G1 X116.01 Y81.482 E22.76927
G1 X116.777 Y81.427 E22.80507
G1 X117.68 Y81.402 E22.84714
G1 X118.238 Y81.427 E22.87314
G1 X118.934 Y81.477 E22.90564
G1 X122.165 Y81.752 E23.05663
G1 X122.9 Y81.825 E23.09102
G1 X123.794 Y81.954 E23.13308
G1 X124.342 Y82.074 E23.1592
G1 X125.156 Y82.276 E23.19826
G1 X128.17 Y83.061 E23.34328
G1 X128.841 Y83.245 E23.37568
G1 X129.701 Y83.522 E23.41775
G1 X130.212 Y83.728 E23.44341
G1 X130.895 Y84.025 E23.47809
G1 X133.751 Y85.317 E23.62405
G1 X134.505 Y85.671 E23.66284
G1 X135.304 Y86.091 E23.70487
G1 X135.751 Y86.368 E23.72935
G1 X136.469 Y86.84 E23.76937
G1 X138.932 Y88.507 E23.90785
G1 X139.658 Y89.014 E23.94908
G1 X140.375 Y89.563 E23.99113
G1 X140.753 Y89.898 E24.01465
G1 X141.378 Y90.48 E24.05442
G1 X143.624 Y92.636 E24.19939
G1 X144.153 Y93.159 E24.23403
G1 X144.767 Y93.822 E24.27611
G1 X145.1 Y94.237 E24.30088
G1 X145.523 Y94.793 E24.33341
G1 X147.452 Y97.4 E24.48442
G1 X147.875 Y97.988 E24.51815
G1 X148.369 Y98.744 E24.5602
G1 X148.641 Y99.232 E24.58622
G1 X149.039 Y99.998 E24.62641
G1 X150.441 Y102.782 E24.77156
G1 X150.743 Y103.401 E24.80363
G1 X151.103 Y104.23 E24.84571
G1 X151.29 Y104.764 E24.87206
G1 X151.549 Y105.576 E24.91175
G1 X152.454 Y108.539 E25.05601
G1 X152.659 Y109.244 E25.09019
G1 X152.873 Y110.122 E25.13228
G1 X152.964 Y110.657 E25.15754
G1 X153.069 Y111.396 E25.1923
G1 X153.455 Y114.402 E25.33342
G1 X153.557 Y115.291 E25.37509
G1 X153.62 Y116.192 E25.41715
G1 X153.619 Y116.735 E25.44243
G1 X153.594 Y117.589 E25.48221
G1 X153.466 Y120.571 E25.6212
G1 X153.419 Y121.418 E25.6607
G1 X153.328 Y122.316 E25.70273
G1 X153.239 Y122.832 E25.72711
G1 X153.079 Y123.632 E25.7651
G1 X152.401 Y126.776 E25.91486
G1 X152.247 Y127.443 E25.94673
G1 X152.005 Y128.313 E25.98878
G1 X151.826 Y128.816 E26.01364
G1 X151.567 Y129.488 E26.04718
G1 X150.36 Y132.488 E26.19775
G1 X150.069 Y133.182 E26.2328
G1 X149.683 Y133.999 E26.27487
G1 X149.425 Y134.458 E26.29939
G1 X149.07 Y135.054 E26.33169
G1 X147.325 Y137.884 E26.4865
G1 X146.958 Y138.46 E26.51831
G1 X146.44 Y139.199 E26.56033
G1 X146.117 Y139.598 E26.58423
G1 X145.665 Y140.128 E26.61667
G1 X143.475 Y142.616 E26.77101
G1 X143.007 Y143.132 E26.80345
G1 X142.372 Y143.773 E26.84546
G1 X141.969 Y144.126 E26.87041
G1 X141.331 Y144.655 E26.909
G1 X139 Y146.538 E27.04853
G1 X138.333 Y147.063 E27.08805
G1 X137.599 Y147.589 E27.1301
G1 X137.143 Y147.869 E27.15502
G1 X136.415 Y148.29 E27.19418
G1 X133.765 Y149.769 E27.33549
G1 X132.979 Y150.191 E27.37703
G1 X132.165 Y150.582 E27.41908
G1 X131.69 Y150.771 E27.44289
G1 X130.922 Y151.053 E27.48098
G1 X128.079 Y152.056 E27.62136
G1 X127.284 Y152.324 E27.66043
G1 X126.416 Y152.573 E27.70247
G1 X125.917 Y152.68 E27.72624
G1 X125.048 Y152.842 E27.7674
G1 X121.947 Y153.372 E27.91389
G1 X121.3 Y153.474 E27.94439
G1 X120.403 Y153.575 E27.98642
G1 X119.866 Y153.597 E28.01144
G1 X119.139 Y153.608 E28.0453
G1 X115.848 Y153.608 E28.19854
G1 X115.131 Y153.597 E28.23193
G1 X114.229 Y153.543 E28.27401
G1 X113.713 Y153.476 E28.29824
G1 X113.092 Y153.379 E28.32751
G1 X109.727 Y152.801 E28.48649
G1 X109.059 Y152.675 E28.51814
G1 X108.18 Y152.469 E28.56018
G1 X107.698 Y152.32 E28.58367
G1 X106.902 Y152.051 E28.6228
G1 X104.065 Y151.048 E28.76291
G1 X103.246 Y150.744 E28.80359
G1 X102.415 Y150.392 E28.84561
G1 X101.96 Y150.162 E28.86935
G1 X101.341 Y149.828 E28.90211
G1 X98.594 Y148.293 E29.04863
G1 X97.853 Y147.865 E29.08848
G1 X97.092 Y147.379 E29.13052
G1 X96.658 Y147.056 E29.15572
G1 X96.003 Y146.541 E29.19451
G1 X93.685 Y144.668 E29.33328
G1 X93.026 Y144.121 E29.37316
