;FLAVOR:Marlin
;TIME:6401
;Filament used: 7.09705m
;Layer height: 0.28
;MINX:62.575
;MINY:62.566
;MINZ:0.28
;MAXX:172.425
;MAXY:172.434
;MAXZ:75.32
;Generated with Cura_SteamEngine 5.4.0
M140 S50
M105
M190 S50
M104 S200
M105
M109 S200
M82 ;absolute extrusion mode
; Ender 3 Custom Start G-code
G92 E0 ; Reset Extruder
G28 ; Home all axes
G1 Z2.0 F3000 ; Move Z Axis up little to prevent scratching of Heat Bed
G1 X0.1 Y20 Z0.3 F5000.0 ; Move to start position
G1 X0.1 Y200.0 Z0.3 F1500.0 E15 ; Draw the first line
G1 X0.4 Y200.0 Z0.3 F5000.0 ; Move to side a little
G1 X0.4 Y20 Z0.3 F1500.0 E30 ; Draw the second line
G92 E0 ; Reset Extruder
G1 Z2.0 F3000 ; Move Z Axis up little to prevent scratching of Heat Bed
G1 X5 Y20 Z0.3 F5000.0 ; Move over to prevent blob squish
G92 E0
G92 E0
G1 F2700 E-5
;LAYER_COUNT:269
;LAYER:0
M107
G0 F6000 X78.52 Y78.796 Z0.28
;TYPE:SKIRT
G1 F2700 E0
G1 F1200 X79.277 Y78.044 E0.04969
G1 X80.224 Y77.156 E0.11014
G1 X81.527 Y75.984 E0.19174
G1 X81.865 Y75.693 E0.21251
G1 X82.919 Y74.824 E0.27612
G1 X84.29 Y73.742 E0.35744
G1 X84.647 Y73.471 E0.37831
G1 X85.658 Y72.743 E0.43633
G1 X87.125 Y71.727 E0.51942
G1 X87.502 Y71.478 E0.54046
G1 X88.621 Y70.776 E0.60197
G1 X90.134 Y69.869 E0.68411
G1 X90.511 Y69.654 E0.70432
G1 X91.693 Y69.011 E0.76697
G1 X93.232 Y68.216 E0.84763
G1 X93.642 Y68.015 E0.86889
G1 X94.64 Y67.553 E0.9201
G1 X96.444 Y66.761 E1.01184
G1 X96.854 Y66.592 E1.03249
G1 X97.89 Y66.19 E1.08424
G1 X99.735 Y65.519 E1.17565
G1 X100.153 Y65.377 E1.19621
G1 X101.414 Y64.981 E1.25775
G1 X103.114 Y64.484 E1.34023
G1 X103.545 Y64.368 E1.36101
G1 X104.571 Y64.114 E1.41023
G1 X106.515 Y63.675 E1.50303
G1 X106.968 Y63.583 E1.52455
G1 X108.303 Y63.347 E1.58768
G1 X110.015 Y63.079 E1.66837
G1 X110.446 Y63.021 E1.68862
G1 X111.77 Y62.871 E1.75066
G1 X113.478 Y62.713 E1.83053
G1 X113.929 Y62.68 E1.85159
G1 X115.101 Y62.623 E1.90623
G1 X117.048 Y62.569 E1.99692
G1 X117.485 Y62.566 E2.01727
G1 X118.561 Y62.581 E2.06738
G1 X120.524 Y62.651 E2.15884
G1 X120.973 Y62.675 E2.17978
G1 X122.109 Y62.765 E2.23284
G1 X123.61 Y62.909 E2.30306
G1 X124.515 Y63.015 E2.34549
G1 X125.578 Y63.167 E2.39549
G1 X127.536 Y63.49 E2.48789
G1 X127.977 Y63.574 E2.5088
G1 X129.235 Y63.838 E2.56865
G1 X130.947 Y64.236 E2.65049
G1 X131.404 Y64.354 E2.67247
G1 X132.694 Y64.716 E2.73486
G1 X134.363 Y65.219 E2.81603
G1 X134.779 Y65.354 E2.83639
G1 X135.786 Y65.704 E2.88603
G1 X137.655 Y66.397 E2.97885
G1 X138.08 Y66.566 E3.00015
G1 X139.317 Y67.089 E3.06269
G1 X140.918 Y67.807 E3.14439
G1 X141.323 Y67.999 E3.16526
G1 X142.48 Y68.58 E3.22555
G1 X144.029 Y69.395 E3.30705
G1 X144.431 Y69.619 E3.32848
G1 X145.579 Y70.29 E3.39039
G1 X147.078 Y71.207 E3.47222
G1 X147.461 Y71.454 E3.49344
G1 X148.522 Y72.171 E3.55307
G1 X149.963 Y73.184 E3.63509
G1 X150.323 Y73.451 E3.65596
G1 X151.383 Y74.269 E3.7183
G1 X152.728 Y75.349 E3.79862
G1 X153.072 Y75.638 E3.81954
G1 X153.921 Y76.381 E3.87208
G1 X155.375 Y77.71 E3.9638
G1 X155.71 Y78.029 E3.98534
G1 X156.625 Y78.946 E4.04566
G1 X157.867 Y80.241 E4.12921
G1 X158.171 Y80.572 E4.15014
G1 X158.98 Y81.493 E4.20722
G1 X160.137 Y82.86 E4.29061
G1 X160.422 Y83.213 E4.31174
G1 X161.095 Y84.083 E4.36296
G1 X162.289 Y85.694 E4.45633
G1 X162.549 Y86.06 E4.47723
G1 X163.253 Y87.106 E4.53594
G1 X164.217 Y88.598 E4.61866
G1 X164.448 Y88.974 E4.63921
G1 X165.031 Y89.968 E4.69286
G1 X165.975 Y91.657 E4.78296
G1 X166.183 Y92.049 E4.80363
G1 X166.699 Y93.073 E4.85702
G1 X167.546 Y94.851 E4.94872
G1 X167.727 Y95.251 E4.96917
G1 X168.239 Y96.46 E5.0303
G1 X168.888 Y98.081 E5.11161
G1 X169.044 Y98.498 E5.13234
G1 X169.476 Y99.736 E5.1934
G1 X170.027 Y101.418 E5.27581
G1 X170.157 Y101.849 E5.29678
G1 X170.505 Y103.097 E5.3571
G1 X170.945 Y104.802 E5.4391
G1 X171.047 Y105.236 E5.45986
G1 X171.322 Y106.528 E5.52137
G1 X171.651 Y108.261 E5.6035
G1 X171.727 Y108.706 E5.62452
G1 X171.885 Y109.785 E5.6753
G1 X172.129 Y111.724 E5.7663
G1 X172.176 Y112.174 E5.78737
G1 X172.285 Y113.552 E5.85174
G1 X172.388 Y115.268 E5.93178
G1 X172.404 Y115.711 E5.95242
G1 X172.425 Y117.012 E6.01301
G1 X172.42 Y118.738 E6.09338
G1 X172.409 Y119.199 E6.11486
G1 X172.354 Y120.356 E6.16879
G1 X172.225 Y122.28 E6.25858
G1 X172.186 Y122.73 E6.27961
G1 X172.06 Y123.866 E6.33284
G1 X171.805 Y125.786 E6.42302
G1 X171.736 Y126.238 E6.44431
G1 X171.503 Y127.539 E6.50586
G1 X171.17 Y129.219 E6.58561
G1 X171.071 Y129.668 E6.60702
G1 X170.746 Y130.996 E6.67068
G1 X170.297 Y132.67 E6.75138
G1 X170.176 Y133.089 E6.77169
G1 X169.77 Y134.38 E6.83471
G1 X169.221 Y136.01 E6.9148
G1 X169.068 Y136.433 E6.93574
G1 X168.572 Y137.718 E6.99988
G1 X167.917 Y139.314 E7.08021
G1 X167.292 Y140.697 E7.15088
G1 X166.42 Y142.488 E7.24364
G1 X166.221 Y142.878 E7.26402
G1 X165.599 Y144.023 E7.3247
G1 X164.929 Y145.213 E7.38829
G1 X164.495 Y145.946 E7.42795
G1 X163.772 Y147.096 E7.49121
G1 X162.826 Y148.536 E7.57143
G1 X162.577 Y148.899 E7.59193
G1 X161.946 Y149.778 E7.64232
G1 X160.762 Y151.356 E7.73418
G1 X160.482 Y151.712 E7.75527
G1 X159.621 Y152.756 E7.81828
G1 X158.486 Y154.077 E7.89938
G1 X158.191 Y154.407 E7.91999
G1 X157.304 Y155.352 E7.98034
G1 X156.48 Y156.204 E8.03553
G1 X155.723 Y156.956 E8.08522
G1 X154.776 Y157.844 E8.14567
G1 X153.473 Y159.016 E8.22727
G1 X153.135 Y159.307 E8.24804
G1 X152.081 Y160.176 E8.31165
G1 X150.71 Y161.258 E8.39297
G1 X150.353 Y161.529 E8.41384
G1 X149.342 Y162.257 E8.47186
G1 X147.875 Y163.273 E8.55495
G1 X147.498 Y163.522 E8.57599
G1 X146.379 Y164.224 E8.6375
G1 X144.866 Y165.131 E8.71964
G1 X144.489 Y165.346 E8.73985
G1 X143.307 Y165.989 E8.8025
G1 X141.768 Y166.784 E8.88316
G1 X141.358 Y166.985 E8.90442
G1 X140.36 Y167.447 E8.95563
G1 X138.556 Y168.239 E9.04737
G1 X138.146 Y168.408 E9.06802
G1 X137.11 Y168.81 E9.11977
G1 X135.265 Y169.481 E9.21118
G1 X134.847 Y169.623 E9.23174
G1 X133.586 Y170.019 E9.29328
G1 X131.886 Y170.516 E9.37576
G1 X131.455 Y170.632 E9.39654
G1 X130.429 Y170.886 E9.44576
G1 X128.485 Y171.325 E9.53856
G1 X128.032 Y171.417 E9.56008
G1 X126.697 Y171.653 E9.62321
G1 X124.985 Y171.921 E9.7039
G1 X124.554 Y171.979 E9.72415
G1 X123.23 Y172.129 E9.78619
G1 X121.522 Y172.287 E9.86606
G1 X121.071 Y172.32 E9.88712
G1 X119.899 Y172.377 E9.94176
G1 X117.952 Y172.431 E10.03245
G1 X117.515 Y172.434 E10.0528
G1 X116.439 Y172.419 E10.10291
G1 X114.476 Y172.349 E10.19437
G1 X114.027 Y172.325 E10.21531
G1 X112.891 Y172.235 E10.26837
G1 X111.39 Y172.091 E10.33859
G1 X110.485 Y171.985 E10.38102
G1 X109.422 Y171.833 E10.43102
G1 X107.464 Y171.51 E10.52342
G1 X107.023 Y171.426 E10.54433
G1 X105.765 Y171.162 E10.60418
G1 X104.053 Y170.764 E10.68602
G1 X103.596 Y170.646 E10.708
G1 X102.306 Y170.284 E10.77039
G1 X100.637 Y169.781 E10.85156
G1 X100.221 Y169.646 E10.87192
G1 X99.214 Y169.296 E10.92156
G1 X97.345 Y168.603 E11.01438
G1 X96.92 Y168.434 E11.03568
G1 X95.683 Y167.911 E11.09822
G1 X94.082 Y167.193 E11.17992
G1 X93.677 Y167.001 E11.20079
G1 X92.52 Y166.42 E11.26108
G1 X90.971 Y165.605 E11.34258
G1 X90.57 Y165.382 E11.36394
G1 X89.413 Y164.705 E11.42636
G1 X87.922 Y163.792 E11.50777
G1 X87.541 Y163.547 E11.52887
G1 X86.657 Y162.952 E11.57848
G1 X85.037 Y161.814 E11.67067
G1 X84.677 Y161.549 E11.69148
G1 X83.614 Y160.73 E11.75397
G1 X82.27 Y159.649 E11.83428
G1 X81.926 Y159.36 E11.8552
G1 X80.911 Y158.468 E11.91812
G1 X79.624 Y157.289 E11.9994
G1 X79.289 Y156.97 E12.02094
G1 X78.376 Y156.054 E12.08116
G1 X77.13 Y154.758 E12.16487
G1 X76.831 Y154.432 E12.18547
G1 X75.998 Y153.481 E12.24434
G1 X74.861 Y152.138 E12.32627
G1 X74.574 Y151.783 E12.34753
G1 X73.765 Y150.735 E12.40918
G1 X72.71 Y149.305 E12.49193
G1 X72.45 Y148.938 E12.51287
G1 X71.865 Y148.073 E12.56149
G1 X70.783 Y146.402 E12.65419
G1 X70.552 Y146.026 E12.67474
G1 X69.969 Y145.032 E12.7284
G1 X69.025 Y143.342 E12.81853
G1 X68.815 Y142.946 E12.83941
G1 X68.221 Y141.766 E12.90092
G1 X67.644 Y140.564 E12.96301
G1 X67.275 Y139.752 E13.00454
G1 X66.761 Y138.54 E13.06584
G1 X66.112 Y136.919 E13.14714
G1 X65.956 Y136.502 E13.16788
G1 X65.524 Y135.264 E13.22893
G1 X64.973 Y133.582 E13.31135
G1 X64.843 Y133.151 E13.33231
G1 X64.495 Y131.903 E13.39264
G1 X64.055 Y130.198 E13.47463
G1 X63.953 Y129.764 E13.49539
G1 X63.678 Y128.471 E13.55694
G1 X63.349 Y126.738 E13.63908
G1 X63.273 Y126.294 E13.66006
G1 X63.115 Y125.216 E13.71079
G1 X62.871 Y123.276 E13.80184
G1 X62.824 Y122.826 E13.8229
G1 X62.715 Y121.448 E13.88727
G1 X62.612 Y119.732 E13.96732
G1 X62.596 Y119.289 E13.98796
G1 X62.575 Y117.988 E14.04855
G1 X62.58 Y116.262 E14.12892
G1 X62.591 Y115.801 E14.15039
G1 X62.646 Y114.644 E14.20432
G1 X62.775 Y112.72 E14.29412
G1 X62.814 Y112.27 E14.31515
G1 X62.94 Y111.134 E14.36837
G1 X63.195 Y109.214 E14.45856
G1 X63.264 Y108.762 E14.47985
G1 X63.497 Y107.461 E14.54139
G1 X63.83 Y105.781 E14.62114
G1 X63.929 Y105.332 E14.64255
G1 X64.254 Y104.004 E14.70621
G1 X64.703 Y102.33 E14.78692
G1 X64.824 Y101.911 E14.80722
G1 X65.23 Y100.62 E14.87024
G1 X65.779 Y98.99 E14.95033
G1 X65.932 Y98.567 E14.97128
G1 X66.428 Y97.282 E15.03541
G1 X67.083 Y95.686 E15.11575
G1 X67.708 Y94.303 E15.18641
G1 X68.58 Y92.512 E15.27917
G1 X68.779 Y92.123 E15.29952
G1 X69.4 Y90.977 E15.36021
G1 X70.067 Y89.793 E15.42349
G1 X70.515 Y89.037 E15.46441
G1 X71.228 Y87.904 E15.52674
G1 X72.174 Y86.464 E15.60697
G1 X72.423 Y86.101 E15.62747
G1 X73.054 Y85.222 E15.67785
G1 X74.238 Y83.644 E15.76971
G1 X74.518 Y83.288 E15.7908
G1 X75.379 Y82.244 E15.85381
G1 X76.514 Y80.923 E15.93491
G1 X76.809 Y80.593 E15.95552
G1 X77.696 Y79.648 E16.01587
G1 X78.52 Y78.796 E16.07107
G0 F6000 X78.802 Y79.08
G1 F1200 X79.551 Y78.336 E16.12022
G1 X80.492 Y77.453 E16.18031
G1 X81.788 Y76.287 E16.26149
G1 X82.119 Y76.002 E16.28183
G1 X83.167 Y75.138 E16.34507
G1 X84.531 Y74.061 E16.426
G1 X84.881 Y73.796 E16.44644
G1 X85.886 Y73.072 E16.50411
G1 X87.346 Y72.061 E16.58681
G1 X87.715 Y71.817 E16.60741
G1 X88.827 Y71.119 E16.66854
G1 X90.333 Y70.216 E16.75031
G1 X90.702 Y70.005 E16.7701
G1 X91.877 Y69.366 E16.83238
G1 X93.408 Y68.575 E16.91262
G1 X93.81 Y68.378 E16.93347
G1 X94.801 Y67.919 E16.98432
G1 X96.597 Y67.131 E17.07565
G1 X96.999 Y66.965 E17.0959
G1 X98.027 Y66.566 E17.14725
G1 X99.864 Y65.898 E17.23826
G1 X100.273 Y65.759 E17.25838
G1 X101.526 Y65.365 E17.31954
G1 X103.218 Y64.87 E17.40163
G1 X103.641 Y64.756 E17.42203
G1 X104.659 Y64.504 E17.47086
G1 X106.595 Y64.067 E17.56328
G1 X107.038 Y63.977 E17.58433
G1 X108.365 Y63.742 E17.64708
G1 X110.069 Y63.475 E17.72739
G1 X110.491 Y63.418 E17.74722
G1 X111.807 Y63.269 E17.80889
G1 X113.507 Y63.112 E17.88839
G1 X113.949 Y63.08 E17.90902
G1 X115.112 Y63.023 E17.96324
G1 X117.051 Y62.969 E18.05356
G1 X117.479 Y62.966 E18.07349
G1 X118.547 Y62.981 E18.12323
G1 X120.502 Y63.05 E18.21432
G1 X120.942 Y63.074 E18.23484
G1 X122.071 Y63.163 E18.28757
G1 X123.563 Y63.306 E18.35736
G1 X124.458 Y63.411 E18.39932
G1 X125.513 Y63.562 E18.44895
G1 X127.462 Y63.883 E18.54093
G1 X127.895 Y63.965 E18.56145
G1 X129.144 Y64.228 E18.62088
G1 X130.856 Y64.626 E18.70273
G1 X131.296 Y64.739 E18.72388
G1 X132.579 Y65.099 E18.78593
G1 X134.239 Y65.599 E18.86665
G1 X134.648 Y65.732 E18.88668
G1 X135.647 Y66.079 E18.93592
G1 X137.508 Y66.769 E19.02835
G1 X137.924 Y66.934 E19.04918
G1 X139.153 Y67.454 E19.11132
G1 X140.747 Y68.169 E19.19267
G1 X141.143 Y68.356 E19.21306
G1 X142.294 Y68.934 E19.27304
G1 X143.835 Y69.745 E19.35412
G1 X144.229 Y69.964 E19.37511
G1 X145.37 Y70.631 E19.43665
G1 X146.862 Y71.544 E19.5181
G1 X147.237 Y71.785 E19.53886
G1 X148.292 Y72.498 E19.59815
G1 X149.725 Y73.506 E19.67973
G1 X150.079 Y73.768 E19.70024
G1 X151.133 Y74.581 E19.76222
G1 X152.471 Y75.655 E19.84211
G1 X152.809 Y75.939 E19.86267
G1 X153.651 Y76.676 E19.91478
G1 X155.099 Y77.999 E20.00611
G1 X155.427 Y78.312 E20.02722
G1 X156.336 Y79.223 E20.08714
G1 X157.573 Y80.512 E20.17033
G1 X157.871 Y80.836 E20.19083
G1 X158.675 Y81.751 E20.24755
G1 X159.826 Y83.111 E20.33051
G1 X160.106 Y83.458 E20.35127
G1 X160.774 Y84.321 E20.40209
G1 X161.963 Y85.926 E20.4951
G1 X162.217 Y86.283 E20.5155
G1 X162.917 Y87.323 E20.57387
G1 X163.876 Y88.808 E20.65619
G1 X164.103 Y89.177 E20.67636
G1 X164.682 Y90.163 E20.7296
G1 X165.622 Y91.845 E20.81932
G1 X165.826 Y92.229 E20.83957
G1 X166.338 Y93.245 E20.89255
G1 X167.182 Y95.016 E20.9839
G1 X167.359 Y95.407 E21.00388
G1 X167.868 Y96.609 E21.06467
G1 X168.513 Y98.221 E21.14551
G1 X168.666 Y98.63 E21.16585
G1 X169.096 Y99.861 E21.22656
G1 X169.644 Y101.534 E21.30854
G1 X169.772 Y101.957 E21.32912
G1 X170.118 Y103.197 E21.38906
G1 X170.556 Y104.894 E21.47067
G1 X170.656 Y105.319 E21.491
G1 X170.929 Y106.603 E21.55213
G1 X171.257 Y108.328 E21.63389
G1 X171.331 Y108.764 E21.65448
G1 X171.488 Y109.835 E21.70488
G1 X171.731 Y111.765 E21.79546
G1 X171.777 Y112.206 E21.81611
G1 X171.886 Y113.576 E21.8801
G1 X171.988 Y115.283 E21.95973
G1 X172.004 Y115.717 E21.97995
G1 X172.025 Y117.011 E22.04022
G1 X172.02 Y118.728 E22.12017
G1 X172.009 Y119.18 E22.14122
G1 X171.955 Y120.329 E22.19478
G1 X171.826 Y122.246 E22.28425
G1 X171.788 Y122.686 E22.30481
G1 X171.663 Y123.813 E22.35761
G1 X171.408 Y125.733 E22.4478
G1 X171.342 Y126.168 E22.46829
G1 X171.111 Y127.461 E22.52945
G1 X170.779 Y129.133 E22.60882
G1 X170.682 Y129.573 E22.6298
G1 X170.357 Y130.901 E22.69346
G1 X169.913 Y132.559 E22.77339
G1 X169.794 Y132.969 E22.79327
G1 X169.391 Y134.252 E22.85589
G1 X168.845 Y135.874 E22.93558
G1 X168.695 Y136.289 E22.95613
G1 X168.202 Y137.566 E23.01987
G1 X167.553 Y139.149 E23.09953
G1 X166.932 Y140.522 E23.1697
G1 X166.064 Y142.306 E23.26208
G1 X165.869 Y142.687 E23.28201
G1 X165.251 Y143.827 E23.34239
G1 X164.585 Y145.009 E23.40557
G1 X164.156 Y145.733 E23.44475
G1 X163.438 Y146.876 E23.5076
G1 X162.496 Y148.31 E23.5875
G1 X162.252 Y148.666 E23.60759
G1 X161.626 Y149.538 E23.65758
G1 X160.447 Y151.109 E23.74904
G1 X160.173 Y151.458 E23.7697
G1 X159.318 Y152.495 E23.83228
G1 X158.188 Y153.81 E23.91302
G1 X157.899 Y154.133 E23.9332
G1 X157.016 Y155.074 E23.99328
G1 X156.198 Y155.92 E24.04808
G1 X155.449 Y156.664 E24.09724
G1 X154.508 Y157.547 E24.15733
G1 X153.212 Y158.713 E24.2385
G1 X152.881 Y158.998 E24.25884
G1 X151.833 Y159.862 E24.32209
G1 X150.469 Y160.939 E24.40301
G1 X150.119 Y161.204 E24.42345
G1 X149.114 Y161.928 E24.48113
G1 X147.654 Y162.939 E24.56382
G1 X147.285 Y163.183 E24.58442
G1 X146.173 Y163.881 E24.64556
G1 X144.667 Y164.784 E24.72732
G1 X144.298 Y164.995 E24.74711
G1 X143.123 Y165.634 E24.8094
G1 X141.592 Y166.425 E24.88964
G1 X141.19 Y166.622 E24.91048
G1 X140.199 Y167.081 E24.96134
G1 X138.403 Y167.869 E25.05266
G1 X138.001 Y168.035 E25.07291
G1 X136.973 Y168.434 E25.12426
G1 X135.136 Y169.102 E25.21528
G1 X134.727 Y169.241 E25.23539
G1 X133.474 Y169.635 E25.29656
G1 X131.782 Y170.13 E25.37864
G1 X131.359 Y170.244 E25.39904
G1 X130.341 Y170.496 E25.44788
G1 X128.405 Y170.933 E25.54029
G1 X127.962 Y171.023 E25.56134
G1 X126.635 Y171.258 E25.62409
G1 X124.931 Y171.525 E25.70441
G1 X124.509 Y171.582 E25.72424
G1 X123.193 Y171.731 E25.78591
G1 X121.493 Y171.888 E25.8654
G1 X121.051 Y171.92 E25.88604
G1 X119.888 Y171.977 E25.94026
G1 X117.949 Y172.031 E26.03058
G1 X117.521 Y172.034 E26.05051
G1 X116.453 Y172.019 E26.10025
G1 X114.498 Y171.95 E26.19134
G1 X114.058 Y171.926 E26.21185
G1 X112.929 Y171.837 E26.26459
G1 X111.437 Y171.694 E26.33438
G1 X110.542 Y171.589 E26.37634
G1 X109.487 Y171.438 E26.42597
G1 X107.538 Y171.117 E26.51794
G1 X107.105 Y171.035 E26.53846
G1 X105.856 Y170.772 E26.5979
G1 X104.144 Y170.374 E26.67974
G1 X103.704 Y170.261 E26.70089
G1 X102.421 Y169.901 E26.76294
G1 X100.761 Y169.401 E26.84367
G1 X100.352 Y169.268 E26.8637
G1 X99.353 Y168.921 E26.91294
G1 X97.492 Y168.231 E27.00536
G1 X97.076 Y168.066 E27.0262
G1 X95.847 Y167.546 E27.08834
G1 X94.253 Y166.831 E27.16969
G1 X93.857 Y166.644 E27.19008
G1 X92.706 Y166.066 E27.25005
G1 X91.165 Y165.255 E27.33114
G1 X90.772 Y165.037 E27.35207
G1 X89.622 Y164.364 E27.41411
G1 X88.138 Y163.455 E27.49514
G1 X87.764 Y163.215 E27.51584
G1 X86.887 Y162.625 E27.56505
G1 X85.274 Y161.492 E27.65684
G1 X84.921 Y161.232 E27.67725
G1 X83.865 Y160.418 E27.73934
G1 X82.527 Y159.342 E27.81929
G1 X82.19 Y159.06 E27.83975
